X: 1
T: Gillis Favorite
T: "Traditional Reel"
C: trad
R: reel
B: BSFC Session Tune Book 2016 p.45
S: Boston Harbor Fiddle School via Barbara McOwen
S: Hanneke Cassel BH10
Z: 2019 John Chambers <jc:trillian.mit.edu>
M: C|
L: 1/8
K: D
"A7"zfg |\
"D"ab{b}af dfaf | "G"bg g/g/g {ga}g2ef |\
"A7"gage cege | "D"ba a/a/a a2fg |
"D"ab{b}af dfaf | "G"bg g/g/g {ga}g2"Em"ef |\
"A7"gage cbag | "D"fd d/d/d d :|
|: b "A7"ag |\
"D"fd d/d/d "C"g=c c/c/c | "D"fd d/d/d d2"C"(=cB) |\
"D"Ad d/d/d "C"=cdBc | "D"Ad d/d/d d :|
